client/public/assets/curriculum/cur-topic-tooling.svg

<svg viewBox="0 0 60 60" fill="none" xmlns="http://www.w3.org/2000/svg">
  <circle cx="30" cy="30" r="30" fill="white" />
  <path
    d="M32.5695 33.7684C32.3782 33.9643 32.38 34.2777 32.5737 34.4713L39.3665 41.2642C39.5634 41.461 39.8832 41.4592 40.0777 41.26L42.0164 39.2754C42.2078 39.0795 42.2059 38.7661 42.0123 38.5724L35.2194 31.7796C35.0226 31.5827 34.7028 31.5846 34.5082 31.7838L32.5695 33.7684ZM36.8742 27.6219C36.5051 27.6219 36.1144 27.586 35.7674 27.4927C35.571 27.4398 35.355 27.4782 35.2108 27.6217L21.5653 41.2074C21.3699 41.4019 21.0539 41.4016 20.8589 41.2066L18.928 39.2757C18.7327 39.0803 18.7328 38.7635 18.9282 38.5683L27.4837 30.0244C27.6788 29.8296 27.6793 29.5136 27.4849 29.3181L25.9728 27.7975C25.7797 27.6032 25.4662 27.6005 25.2697 27.7915L25.0728 27.983C24.8787 28.1717 24.5697 28.1717 24.3757 27.983L23.7603 27.3845C23.4433 27.0763 22.9117 27.3009 22.9117 27.743V29.9273C22.9117 30.0599 22.859 30.1871 22.7653 30.2808L22.3923 30.6538C22.1962 30.8499 21.8781 30.849 21.6832 30.6518L17.9863 26.9129C17.7929 26.7173 17.7938 26.4023 17.9883 26.2078L18.3653 25.8308C18.459 25.7371 18.5862 25.6844 18.7188 25.6844H20.8232C21.2678 25.6844 21.4912 25.1476 21.178 24.8321L20.6253 24.2754C20.4312 24.08 20.4317 23.7643 20.6265 23.5696L24.7242 19.4719C26.0685 18.1276 28.1625 18.0189 29.628 19.1458C29.8451 19.3127 29.8453 19.6295 29.6539 19.8254L27.7083 21.8171C27.5164 22.0135 27.5188 22.3279 27.7136 22.5213L28.7681 23.5683C28.9646 23.7634 28.9652 24.0809 28.7694 24.2767L28.5913 24.4548C28.3956 24.6505 28.3961 24.9678 28.5923 25.1629L30.1149 26.6771C30.3126 26.8736 30.6328 26.8706 30.8267 26.6703L32.5188 24.9224C32.6585 24.7781 32.695 24.565 32.6405 24.3717C32.5426 24.0244 32.4992 23.6363 32.4992 23.2844C32.4992 20.8219 34.4492 18.8844 36.8742 18.8844C37.3783 18.8844 37.8415 18.9661 38.2718 19.1296C38.5764 19.2454 38.6254 19.6332 38.3949 19.8637L35.8653 22.3933C35.67 22.5886 35.67 22.9052 35.8653 23.1004L37.0332 24.2683C37.2284 24.4636 37.545 24.4636 37.7403 24.2683L40.2699 21.7387C40.5004 21.5082 40.889 21.5567 41.0054 21.8612C41.1679 22.2865 41.2492 22.7477 41.2492 23.2844C41.2492 25.6844 39.3117 27.6219 36.8742 27.6219Z"
    fill="#481C6A" />
</svg>

<svg xmlns="http://www.w3.org/2000/svg" fill="none" viewBox="0 0 60 60">
  <circle cx="30" cy="30" r="30" fill="#fff" />
  <path fill="#481C6A"
    d="M32.57 33.768a.5.5 0 0 0 .004.703l6.793 6.793a.5.5 0 0 0 .71-.004l1.94-1.985a.5.5 0 0 0-.005-.703L35.22 31.78a.5.5 0 0 0-.71.004zm4.304-6.146c-.369 0-.76-.036-1.107-.13a.57.57 0 0 0-.556.13L21.565 41.207a.5.5 0 0 1-.706 0l-1.931-1.931a.5.5 0 0 1 0-.708l8.556-8.544a.5.5 0 0 0 0-.706l-1.511-1.52a.5.5 0 0 0-.703-.006l-.197.191a.5.5 0 0 1-.697 0l-.616-.599a.5.5 0 0 0-.848.359v2.184a.5.5 0 0 1-.147.354l-.373.373a.5.5 0 0 1-.709-.002l-3.697-3.74a.5.5 0 0 1 .002-.704l.377-.377a.5.5 0 0 1 .354-.147h2.104a.5.5 0 0 0 .355-.852l-.553-.557a.5.5 0 0 1 .002-.705l4.097-4.098a3.72 3.72 0 0 1 4.904-.326c.217.167.217.483.026.68l-1.946 1.991a.5.5 0 0 0 .006.704l1.054 1.047a.5.5 0 0 1 .001.709l-.178.178a.5.5 0 0 0 .001.708l1.523 1.514a.5.5 0 0 0 .712-.007l1.692-1.748a.57.57 0 0 0 .122-.55 4.1 4.1 0 0 1-.142-1.088c0-2.462 1.95-4.4 4.375-4.4q.755 0 1.398.246c.304.115.353.503.123.734l-2.53 2.53a.5.5 0 0 0 0 .706l1.168 1.168a.5.5 0 0 0 .707 0l2.53-2.53c.23-.23.619-.181.735.123.163.425.244.887.244 1.423 0 2.4-1.937 4.338-4.375 4.338" />
</svg>
